libs/ui/packages/crypto-icons/src/svg/LBC.svg

<svg width="24" height="24" viewBox="0 0 24 24" fill="none">
<path d="M18.0852 12.9037L17.4874 12.7544L17.6689 12.0269L19.5327 12.4927L19.0677 14.3564L18.3394 14.1749L18.5007 13.5284L11.8467 17.6482L4.46741 13.9612V11.1472L12.1354 6.35168L19.1667 9.78143V10.9394L11.8474 15.4867L6.41216 12.7919L6.74516 12.1199L11.8069 14.6294L18.4167 10.5224V10.2502L12.1804 7.20818L5.21816 11.5627V13.4977L11.8084 16.7902L18.0852 12.9037Z" fill="#006149"/>
</svg>

<svg width="24" height="24" viewBox="0 0 24 24" fill="none"><path fill="#006149" d="m18.085 12.904-.598-.15.182-.727 1.864.466-.465 1.863-.729-.181.162-.647-6.654 4.12-7.38-3.687v-2.814l7.668-4.795 7.032 3.43v1.157l-7.32 4.548-5.435-2.695.333-.672 5.062 2.51 6.61-4.108v-.272L12.18 7.208l-6.962 4.355v1.935l6.59 3.292z"/></svg>
